packages/core/src/svgs/mcade.svg

<svg width="24" height="24" viewBox="0 0 24 24" fill="none" xmlns="http://www.w3.org/2000/svg">
<g clip-path="url(#clip0_31_13581)">
<path d="M0 0H24V24H0V0Z" fill="#181B1E"/>
<path d="M9.85714 4.28585C9.85714 4.05853 9.94745 3.84051 10.1082 3.67976C10.2689 3.51902 10.487 3.42871 10.7143 3.42871C10.9416 3.42871 11.1596 3.51902 11.3204 3.67976C11.4811 3.84051 11.5714 4.05853 11.5714 4.28585V5.15585C10.9757 5.19443 10.4014 5.30585 9.85714 5.48585V4.28585ZM9.85714 18.5144V20.143C9.85714 20.3703 9.94745 20.5883 10.1082 20.7491C10.2689 20.9098 10.487 21.0001 10.7143 21.0001C10.9416 21.0001 11.1596 20.9098 11.3204 20.7491C11.4811 20.5883 11.5714 20.3703 11.5714 20.143V18.8444C10.9882 18.8082 10.4121 18.6973 9.85714 18.5144ZM12.4286 18.8444V20.143C12.4286 20.3703 12.5189 20.5883 12.6796 20.7491C12.8404 20.9098 13.0584 21.0001 13.2857 21.0001C13.513 21.0001 13.7311 20.9098 13.8918 20.7491C14.0526 20.5883 14.1429 20.3703 14.1429 20.143V18.5144C13.5986 18.6944 13.0243 18.8059 12.4286 18.8444ZM14.1429 5.48585V4.28585C14.1429 4.05853 14.0526 3.84051 13.8918 3.67976C13.7311 3.51902 13.513 3.42871 13.2857 3.42871C13.0584 3.42871 12.8404 3.51902 12.6796 3.67976C12.5189 3.84051 12.4286 4.05853 12.4286 4.28585V5.15585C13.0243 5.19443 13.5986 5.30585 14.1429 5.48585ZM17.1429 8.57157L12 12.2144L17.1429 15.8573C16.02 17.233 14.0571 18.0001 12.1243 18.0001C8.73857 18.0001 6 15.313 6 12.0001C6 8.68728 8.74286 6.00014 12.1243 6.00014C14.1857 6.00014 16.0329 7.03728 17.1429 8.57157Z" fill="#FFC010"/>
</g>
<defs>
<clipPath id="clip0_31_13581">
<rect width="24" height="24" fill="white"/>
</clipPath>
</defs>
</svg>

<svg xmlns="http://www.w3.org/2000/svg" width="24" height="24" fill="none" viewBox="0 0 24 24"><g clip-path="url(#a)"><path fill="#181B1E" d="M0 0h24v24H0z"/><path fill="#FFC010" d="M9.857 4.286a.857.857 0 0 1 1.714 0v.87c-.595.038-1.17.15-1.714.33zm0 14.228v1.629a.857.857 0 0 0 1.714 0v-1.299a6.8 6.8 0 0 1-1.714-.33m2.572.33v1.299a.857.857 0 0 0 1.714 0v-1.629a6.9 6.9 0 0 1-1.714.33m1.714-13.358v-1.2a.857.857 0 1 0-1.714 0v.87c.595.038 1.17.15 1.714.33m3 3.086L12 12.214l5.143 3.643C16.02 17.233 14.057 18 12.124 18 8.74 18 6 15.313 6 12s2.743-6 6.124-6a6.23 6.23 0 0 1 5.019 2.572"/></g><defs><clipPath id="a"><path fill="#fff" d="M0 0h24v24H0z"/></clipPath></defs></svg>
